X:1
T:James Gibb editions
T:Ave Maria II - Lemmens
T:#
%%score 1 { ( 2 3 ) | ( 4 5 ) }
L:1/8
Q:1/4=84
M:3/4
K:Eb
V:1 treble nm="Midi_74"
V:2 treble nm="Midi_20"
V:3 treble 
V:4 bass 
V:5 bass 
V:1
"^andante sostenuto"!p!"^Ave Maria II""^Jacques-Nicolas Lemmens\n(1823-81)" G4 F2 | E4 B,2 | %2
w: A- ve,|a- ve,|
 G4 EG | B2 G4 | c3 c (3(cdc) | B2 B4 | (B2 A)A (A/G/) (B/G/) | F2 z2 FF | GG G2"^cresc." GG | %9
w: a- ve Ma-|ri- a,|gra- ti- a * *|ple- na,|Do\- * mi- nus * te\- *|cum; be- ne-|di- cta tu, be- ne-|
 =AA A2 AA | BB BB BB | (ed c)B =AB | F>F F{/A}_G FE | DD D3 C | B,2 z2 z2 | z6 | %16
w: di- cta tu, be- ne-|di- cta tu in mu- li-|e\- * * ri- bus, in|mu- li- e- ri- bus, in|mu- li- e- ri-|bus.||
!pp! B2 (A_G) (FE) | (_D>E) D2 z2 | _d2 (_cB) A_G | (A>B) A2 z2 | B2 _G4 | _d2 B4 | %22
w: Et be\- * ne\- *|di\- * ctus|fru- ctus * ven- tris|tu\- * i,|Je- sus,|Je- sus,|
 !courtesy!=d2 (cB) (Gc) | (B4 A2) | G4 F>F | E4 B,2 | G3 E"^cresc." BB | (B>G) =E2 z2 | %28
w: Je- sus, * Je\- *|sus. *|San- cta Ma-|ri- a,|Ma- ter, Ma- ter|De\- * i,|
!f! c2 cc (BA/B/) | c2 z2 z2 |!p! _cc c2 (BA/B/) | _c2 z2 z2 |!pp! ^F2 FF (=EG) | ^F4 z2 | %34
w: o- ra pro no\- * *|bis|pec- ca- to- ri\- * *|bus|nunc et in ho\- *|ra|
 ^FF (F2 =EG) | ^F4 z2 | !courtesy!_B2 BB BB |"^cresc." c2 c3 c | dd dd d2 | e3 e ee | %40
w: mor- tis no\- * *|strae,|nunc et in ho- ra|mor- tis, in|ho ra mor- tis no-|strae, nunc et in|
 (e/c/) (d/e/) (fe) (dc) | B4"^dim." (BA) | (G4 F2) | E4 A2 | G4"^rall." D2 | E6- | E2 z2 z2 |] %47
w: ho\- * ra * mor\- * tis *|no- strae. *|A\- *|men, A-|men, A-|men.||
V:2
 G4 F2 | E4 B,2 | G4 EG | B2 G4 | [Cc]6 | B6- | B6 | B2 z/ F/G/=A/ B2- | %8
 B2 B/G/=A/B/"^cresc." c2- | c2 c/=A/B/c/ d2- | d2 d/B/c/d/ e2- | [ce][Bd][Ac][GB][E=A]-[DB] | %12
 F3 _GFE | !courtesy!=D4- DC | B,F B3 _G | _c3 FA_C | B,6 | _C_cBA_GF | _G>B _D4 | e2 _d_cBA | B6 | %21
 _d6 | !courtesy!=d2 cBGc | B4 _A2 | [EG]4 [A,F]2 | E4 x2 | G3 E- [EGB]2 | B>G E3 B | %28
!f! [Ac]4 [GB][FA]/[GB]/ | [CAc]3"^dim." C_D=D |!p! [EA_c]4 [GB][=FA]/[GB]/ | [EA_c]3!pp! E=EF | %32
 ^F/^G/^A/=B/ ^dF=E=G | ^F3 ^d^cA | ^F/^G/^A/=B/ ^dF=E=G | ^F6 | z/ B/c/d/ edcB | %37
"^cresc." A/c/d/e/ fedc | B/f/g/a/ ba[Bg][Af] | e/g/a/b/ c'bag | agfedc | B/F/G/A/"^dim." B3 A | %42
 G4 F2 | [G,E]4 [B,-FA]2 | [B,EG]4"^rail." [A,B,D]2 | [G,B,E]6 | [G,B,E]4 z2 |] %47
V:3
 x4 x2 | x4 x2 | x4 E2 | F2 E4 | G2 F4- | F2 E4- | [EA]2 [FA]2 [EG]2 | [DF]2 z2 z/ D/E/F/ | %8
 G4- G/E/F/G/ | =A4- A/F/G/A/ | B4- B/G/=A/B/ | x2 x2 F2 | C2 _D3 _C | B,4 =A,2 | B,2 z2 z B, | %15
 E2!>(! _D2 _C2!>)! | x4 x2 | x4 x2 | x4 x2 | x4 x2 | _D3 !courtesy!=CDE | =E6 | F4 E2 | %23
 D2- D/=E/F/G/ A/B,/C/D/ | x4 x2 | x4 B,2- | [B,E]4 x2 | [C=EG]2- C_D C2- | C4 x2 | x4 x2 | %30
 x4 _F2 | x3 x x2 | ^D4 =E2 | ^D4 =E2 | ^D4 =E2 | ^D6 | G6 | A6 | B4 x2 | e6- | e/c/d/e/ cBAG | %41
 F2- F_F E2- | E/B,/C/D/ EB,A,B, | x4 x2 | x4 x2 | x4 x2 | x4 x2 |] %47
V:4
!p! B,4- [A,B,]2 | [G,B,]4 [F,A,]2 | [G,B,]4- B,2 | B,6 | A,,/C,/D,/E,/ F,C,A,F, | %5
 D,/B,,/C,/D,/ E,B,,G,E, | C2 B,4- | B,2 x4 | E,/G,/=A,/B,/ CB,"^cresc."A,G, | %9
 F,/=A,/B,/C/ DCB,A, | G,/B,/C/D/ EDCB, | =A,B,EDCB, | =A,2 B,2 A,_G, | F,=E,F,G,F,_E, | %14
 D,2 z D, _G,2- | G,2 F,4 |!pp! _G,6 | F,4 _C2 | B,6 | _C6 | B,6- | B,3 =A,B,C | B,4 =A,2 | %23
 B,/=E,/F,/G,/ _A,2 F,2 | B,6- | [G,B,]4 [F,A,]2 | G,4"^cresa" _D,,2 | %27
 C,,/G,,/A,,/B,,/ C,B,,A,,G,, | F,,/C,/=D,/=E,/ F,C,E,C, | F,,/C,/=D,/=E,/ F,C,_D,=D, | %30
!p! A,,/E,/F,/G,/ A,E,_DE, | A,,/E,/F,/G,/ A,E,=E,F, | ^F,4 !courtesy!=G,=E, | x6 | %34
 ^F,4 !courtesy!=G,=E, | x6 | E2- E/B,/C/D/ ED |"^cresc." C2- C/C/D/E/ FE | %38
 D2- D/[I:staff -1]F/G/A/ B/B/c/d/ |[I:staff +1] G2 x4 | x6 | D,,A,,G,,"^dim."_D,C,_C, | B,,6 | %43
 E,,/B,,/C,/D,/ E,B,,D,B,, | E,,/B,,/C,/D,/ E,B,,F,B,, | E,,/B,,/C,/D,/ E,B,,G,,B,, | E,,4 z2 |] %47
V:5
 E,,/B,,/C,/D,/ E,B,,D,B,, | E,,/B,,/C,/D,/ E,B,,D,B,, | E,,/B,,/C,/D,/ E,B,,G,E, | %3
 D,/B,,/C,/D,/ E,B,,A,,G,, | A,,6- | A,,2 G,,4 | F,,/A,,/B,,/C,/ D,B,,E,E,, | %7
 B,,/F,/G,/=A,/ B,A,G,F, | E,6 | F,6 | G,6 | x4 x2 | z E,_D,_G,,_D,,E,, | F,,!courtesy!=G,, F,,4 | %14
 B,,2 z B,, E,2- | E,A,, _D,3 _D,, | [_G,,_D,]6- | [G,,D,]6 | [_G,,_D,-]6 | [D,F,]6 | _G,6- | G,6 | %22
 F,6 | B,,6 | E,,/B,,/C,/D,/ E,B,,D,B,, | E,,/B,,/C,/D,/ E,B,,D,B,, | E,,/B,,/C,/D,/ E,B,,_D,B,, | %27
 x6 | x6 | x6 | x6 | x6 | =B,,6- | B,,/^F,/^G,/^A,/ =B,F,=G,=E, | =B,,6- | %35
 B,,/^F,/^G,/^A,/ =B,F,G,=A, | !courtesy!_B,6- | B,6 | B,6 | CB,A,G,F,E, | C,B,,A,,G,,F,,E,, | x6 | %42
 x6 | x6 | x6 | x6 | x6 |] %47

